X:268
M:C|
L:1/8
K:A
e|cAce aece|dcBA GBBe|1 cAce aece|dcBe cAA:|2 cAce abae|dcBe cAA||
dcBe cAA||

